1-js/04-object-basics/01-object/object-user-empty.svg

<?xml version="1.0" encoding="UTF-8"?>
<svg width="248px" height="92px" viewBox="0 0 248 92" version="1.1" xmlns="http://www.w3.org/2000/svg" xmlns:xlink="http://www.w3.org/1999/xlink">
    <!-- Generator: sketchtool 55.2 (78181) - https://sketchapp.com -->
    <title>object-user-empty.svg</title>
    <desc>Created with sketchtool.</desc>
    <g id="combined" stroke="none" stroke-width="1" fill="none" fill-rule="evenodd">
        <g id="object-user-empty.svg">
            <rect fill="#FFFFFF" x="0" y="0" width="248" height="92"></rect>
            <path d="M123.93675,12 L107.270083,32 L237.729917,32 L221.06325,12 L123.93675,12 Z" id="Rectangle-4-Copy" stroke="#D1C4B1" stroke-width="4" fill="#D1C4B1" opacity="0.5"></path>
            <rect id="Rectangle-4" stroke="#BCA68E" stroke-width="4" fill="#FFF9EB" x="105" y="26" width="135" height="50"></rect>
            <rect id="Rectangle-8" stroke="#BCA68E" stroke-width="3" x="160.5" y="46.5" width="25" height="10"></rect>
            <text id="empty" font-family="OpenSans-Regular, Open Sans" font-size="14" font-weight="normal" fill="#9B9B9B">
                <tspan x="151" y="22">empty</tspan>
            </text>
            <text id="user" font-family="OpenSans-Bold, Open Sans" font-size="14" font-weight="bold" fill="#EE6B47">
                <tspan x="4" y="56">user</tspan>
            </text>
            <path id="Line-8" d="M70.5,53 L44,53 L44,50 L70.5,50 L70.5,42 L89.5,51.5 L70.5,61 L70.5,53 Z" fill="#EE6B47" fill-rule="nonzero"></path>
        </g>
    </g>
</svg>

<svg xmlns="http://www.w3.org/2000/svg" width="248" height="92" viewBox="0 0 248 92"><defs><style>@import url(https://fonts.googleapis.com/css?family=Open+Sans:bold,italic,bolditalic%7CPT+Mono);@font-face{font-family:&apos;PT Mono&apos;;font-weight:700;font-style:normal;src:local(&apos;PT MonoBold&apos;),url(/font/PTMonoBold.woff2) format(&apos;woff2&apos;),url(/font/PTMonoBold.woff) format(&apos;woff&apos;),url(/font/PTMonoBold.ttf) format(&apos;truetype&apos;)}</style></defs><g id="combined" fill="none" fill-rule="evenodd" stroke="none" stroke-width="1"><g id="object-user-empty.svg"><path fill="#FFF" d="M0 0h248v92H0z"/><path id="Rectangle-4-Copy" fill="#D1C4B1" stroke="#D1C4B1" stroke-width="4" d="M123.937 12L107.27 32h130.46l-16.667-20h-97.126z" opacity=".5"/><path id="Rectangle-4" fill="#FFF9EB" stroke="#BCA68E" stroke-width="4" d="M105 26h135v50H105z"/><path id="Rectangle-8" stroke="#BCA68E" stroke-width="3" d="M160.5 46.5h25v10h-25z"/><text id="empty" fill="#9B9B9B" font-family="OpenSans-Regular, Open Sans" font-size="14" font-weight="normal"><tspan x="151" y="22">empty</tspan></text><text id="user" fill="#EE6B47" font-family="OpenSans-Bold, Open Sans" font-size="14" font-weight="bold"><tspan x="4" y="56">user</tspan></text><path id="Line-8" fill="#EE6B47" fill-rule="nonzero" d="M70.5 42l19 9.5-19 9.5v-8H44v-3h26.5v-8z"/></g></g></svg>
